assets/report/china-popculture/C.svg

<svg fill="none" height="19" viewBox="0 0 19 19" width="19" xmlns="http://www.w3.org/2000/svg"><path d="m9.38867 18.4697c4.82523 0 8.81543-3.9902 8.81543-8.8154 0-4.83399-3.9902-8.815433-8.82422-8.815433-4.82519 0-8.806638 3.981443-8.806638 8.815433 0 4.8252 3.990238 8.8154 8.815428 8.8154zm0-1.1426c-4.2539 0-7.67285-3.4277-7.67285-7.6728 0-4.25391 3.41895-7.68164 7.66406-7.68164 4.25392 0 7.68162 3.42773 7.69042 7.68164 0 4.2451-3.4277 7.6728-7.68163 7.6728zm.02637-3.5859c1.53806 0 2.77736-.791 3.12886-1.9863.044-.1582.0528-.2461.0528-.3516 0-.2988-.1758-.4834-.4658-.4834-.2286 0-.3692.1143-.4747.3692-.2812.958-1.1162 1.538-2.22358 1.538-1.50293 0-2.53125-1.3007-2.53125-3.20796 0-1.90723 1.02832-3.2168 2.53125-3.2168 1.10738 0 1.94238.58008 2.22358 1.53809.1055.25488.2461.36914.4747.36914.29 0 .4658-.18457.4658-.4834 0-.11426-.0088-.19336-.0528-.35156-.3515-1.17773-1.6084-1.99512-3.12886-1.99512-2.17969 0-3.61231 1.64356-3.61231 4.13965 0 2.49606 1.42383 4.12206 3.61231 4.12206z" fill="#111"/></svg>

<svg width="19" height="19" viewBox="0 0 19 19" fill="none" xmlns="http://www.w3.org/2000/svg">
<path d="M9.38867 18.4697C14.2139 18.4697 18.2041 14.4795 18.2041 9.6543C18.2041 4.82031 14.2139 0.838867 9.37988 0.838867C4.55469 0.838867 0.573242 4.82031 0.573242 9.6543C0.573242 14.4795 4.56348 18.4697 9.38867 18.4697ZM9.38867 17.3271C5.13477 17.3271 1.71582 13.8994 1.71582 9.6543C1.71582 5.40039 5.13477 1.97266 9.37988 1.97266C13.6338 1.97266 17.0615 5.40039 17.0703 9.6543C17.0703 13.8994 13.6426 17.3271 9.38867 17.3271ZM9.41504 13.7412C10.9531 13.7412 12.1924 12.9502 12.5439 11.7549C12.5879 11.5967 12.5967 11.5088 12.5967 11.4033C12.5967 11.1045 12.4209 10.9199 12.1309 10.9199C11.9023 10.9199 11.7617 11.0342 11.6562 11.2891C11.375 12.2471 10.54 12.8271 9.43262 12.8271C7.92969 12.8271 6.90137 11.5264 6.90137 9.61914C6.90137 7.71191 7.92969 6.40234 9.43262 6.40234C10.54 6.40234 11.375 6.98242 11.6562 7.94043C11.7617 8.19531 11.9023 8.30957 12.1309 8.30957C12.4209 8.30957 12.5967 8.125 12.5967 7.82617C12.5967 7.71191 12.5879 7.63281 12.5439 7.47461C12.1924 6.29688 10.9355 5.47949 9.41504 5.47949C7.23535 5.47949 5.80273 7.12305 5.80273 9.61914C5.80273 12.1152 7.22656 13.7412 9.41504 13.7412Z" fill="#111111"/>
</svg>
